X: 15
T: Reveille toy franc cuer joyeulx
N: Derived from Com3033-Reveille_toy_franc_cuer_joyeulx.krn
C: Loyset Comp\`ere
%%abc-version 2.0
%%abcx-abcm2ps-target-version 5.9.1 (29 Sep 2008)
%%abc-creator hum2abc beta
%%abcx-conversion-date 2019/02/16 20:28:09
%%abc-edited-by Jesse Rodin
%%abc-edited-by Megan K. Eagen 2013/12/01
%%abcx-initial-encoding-date 2013/12/01/
%%humdrum-veritas 2089310611
%%humdrum-veritas-data 157714637
%%linebreak <none>
%%barnumbers 0
L: 1/4
M: 2/1
Q: 1/2=120
V: 1 clef=treble
V: 2 clef=treble-8
V: 3 clef=bass
K: F
[V:1] G4G2G2 | 
[V:2] G4G2G2 | 
[V:3] G,,4G,,2G,,2 | 
[V:1] B4B4 | 
[V:2] d4d4 | 
[V:3] G,,4G,,4 | 
[V:1] B2B4AG | 
[V:2] d2d4cB | 
[V:3] G,,6G,,2- | 
[V:1] AGFEF4 | 
[V:2] cBAGA4 | 
[V:3] G,,A,,B,,C,D,4 | 
[V:1] z2F2G2A2 | 
[V:2] z2A2B2c2 | 
[V:3] z2D,2B,,2A,,2 | 
[V:1] B4A2BA | 
[V:2] d4c4- | 
[V:3] G,,2G,2A,2F,2- | 
[V:1] BAGFG2AG | 
[V:2] c4B4 | 
[V:3] F,2E,F,G,4 | 
[V:1] AG^FEF2EF | 
[V:2] A8 | 
[V:3] D,8 | 
[V:1] G4G4 | 
[V:2] G4B4 | 
[V:3] G,,4G,4 | 
[V:1] G2G2A4 | 
[V:2] B2B2c4 | 
[V:3] G,2G,2F,4 | 
[V:1] G6F2 | 
[V:2] B8 | 
[V:3] G,4_E,4 | 
[V:1] F6ED | 
[V:2] A4G4- | 
[V:3] F,4C,4- | 
[V:1] E4F4 | 
[V:2] G4F4 | 
[V:3] C,4D,4 | 
[V:1] z2F2B2c2 | 
[V:2] z2F2G2A2 | 
[V:3] z2D,2_E,2C,2 | 
[V:1] d4c4- | 
[V:2] B4_e4- | 
[V:3] B,,4A,,4- | 
[V:1] c2B2B4- | 
[V:2] e4d4 | 
[V:3] A,,2G,,A,,B,,4 | 
[V:1] B2AGA4 | 
[V:2] c8 | 
[V:3] F,,8 | 
[V:1] B4z4 | 
[V:2] B4z4 | 
[V:3] B,,4z4 | 
[V:1] B4B2B2 | 
[V:2] G4G2G2 | 
[V:3] _E,4E,2E,2 | 
[V:1] B4B4 | 
[V:2] G4G2B2- | 
[V:3] _E,2E,2E,3D, | 
[V:1] A2G4FE | 
[V:2] B2AGB2c2 | 
[V:3] _E,4E,4 | 
[V:1] F4z2F2 | 
[V:2] d4z2d2 | 
[V:3] D,4z2D,2 | 
[V:1] G2A2B4 | 
[V:2] e2c2d4 | 
[V:3] C,2C,2B,,4 | 
[V:1] A4AGFE | 
[V:2] c6BA | 
[V:3] F,8 | 
[V:1] DEFGAG^FE | 
[V:2] B4A4- | 
[V:3] G,4D,3E, | 
[V:1] ^F3E/F/G4 |]  
[V:2] A4G4 |]  
[V:3] D,4G,,4 |]  



